StripePaymentSheet/StripePaymentSheet/Resources/StripePaymentSheet.xcassets/Carousel/carousel_applepay.imageset/carousel_applepay.svg

<svg fill="none" height="40" viewBox="0 0 56 40" width="56" xmlns="http://www.w3.org/2000/svg"><path d="m43.597 8h-31.1939c-.1299 0-.2601 0-.3898.00076-.1096.00078-.219.00199-.3283.00498-.2386.00644-.4792.02051-.7147.06282-.2393.04304-.462.11325-.6793.22379-.2135.10855-.40906.25053-.57851.41995-.16952.16942-.31158.36451-.42017.57819-.11064.21712-.18093.43975-.2237.6791-.04257.23551-.05673.47591-.06316.71401-.00294.1093-.0042.2186-.00491.3279-.00076.1299-.00051.2597-.00051.3898v17.5104c0 .1301-.00025.2597.00051.3898.00071.1093.00197.2186.00491.3279.00643.238.02059.4783.06316.7137.04277.2395.11306.462.2237.6792.10859.2136.25065.409.42017.5782.16945.1697.36501.3116.57851.4199.2173.1108.44.1811.6793.2241.2355.042.4761.0563.7147.0628.1093.0025.2187.0039.3283.0044.1297.001.2599.001.3898.001h31.1939c.1297 0 .2598 0 .3895-.001.1093-.0005.2187-.0019.3286-.0044.238-.0065.4785-.0208.7147-.0628.239-.043.4617-.1133.679-.2241.2138-.1083.4087-.2502.5785-.4199.1693-.1692.3113-.3646.4202-.5782.1109-.2172.1811-.4397.2237-.6792.0426-.2354.0564-.4757.0628-.7137.003-.1093.0045-.2186.005-.3279.001-.1301.001-.2597.001-.3898v-17.5104c0-.1301 0-.2599-.001-.3898-.0005-.1093-.002-.2186-.005-.3279-.0064-.2381-.0202-.4785-.0628-.71401-.0426-.23935-.1128-.46198-.2237-.6791-.1089-.21368-.2509-.40877-.4202-.57819-.1698-.16942-.3647-.3114-.5785-.41995-.2173-.11054-.44-.18075-.679-.22379-.2362-.04231-.4767-.05638-.7147-.06282-.1099-.00299-.2193-.0042-.3286-.00498-.1297-.00076-.2598-.00076-.3895-.00076z" fill="#000"/><path d="m43.597 8.81087.3837.00073c.104.00074.2079.00186.3125.00471.1818.00491.3945.01475.5928.05028.1723.03103.3168.07822.4556.14882.1369.06956.2624.16072.3719.27008.11.1101.2013.23573.2718.37415.0702.13759.1171.2814.148.45496.0354.196.0452.4093.0502.5922.0028.1032.0042.2064.0047.3121.001.1278.001.2556.001.3836v17.5157c0 .1281 0 .2556-.001.3861-.0005.1032-.0019.2065-.0047.3099-.005.1826-.0148.3957-.0507.5941-.0304.1711-.0773.315-.1479.4533-.0703.138-.1614.2635-.2709.3729-.1102.1102-.2353.2011-.3738.2713-.1377.0702-.282.1174-.4526.1481-.2023.036-.4239.0459-.5908.0505-.105.0023-.2095.0037-.3166.0042-.1276.001-.2556.001-.3832.001h-31.1939c-.0017 0-.0034 0-.0051 0-.1261 0-.2525 0-.3809-.001-.1047-.0005-.2092-.0019-.3102-.0042-.1707-.0046-.3925-.0145-.5931-.0503-.1721-.0309-.3164-.0781-.4559-.1492-.1373-.0696-.2622-.1604-.3724-.2708-.1094-.1091-.2003-.2342-.2706-.3725-.07033-.1382-.11739-.2824-.14833-.4556-.03578-.198-.0456-.4103-.05051-.5917-.00281-.1038-.00398-.2076-.00464-.3109l-.00051-.3047.00003-.0805v-17.5157l-.00003-.0804.00049-.3042c.00068-.1038.00185-.2076.00466-.3114.00491-.1816.01473-.3939.0508-.5935.03067-.17168.07771-.31595.14844-.45478.0697-.13723.1608-.26249.2707-.37238.1095-.10952.2349-.20057.373-.2708.138-.07025.2826-.11742.4547-.14838.1983-.03562.4112-.04544.5934-.05038.1039-.00282.2078-.00394.311-.00466l.385-.00075z" fill="#fff"/><g fill="#000"><path d="m19.3738 16.1803c.3253-.407.5461-.9534.4879-1.5118-.4763.0237-1.0575.3142-1.394.7215-.3022.3488-.5696.9181-.4999 1.4531.5347.0464 1.0689-.2673 1.406-.6628z"/><path d="m19.8556 16.9475c-.7765-.0462-1.4367.4406-1.8075.4406-.371 0-.9388-.4173-1.5529-.406-.7994.0117-1.5411.4635-1.9467 1.1821-.8343 1.4376-.2202 3.57.5912 4.7408.394.5792.8688 1.217 1.4945 1.1941.5911-.0232.8228-.3827 1.5414-.3827.718 0 .9267.3827 1.5525.3711.6489-.0116 1.0547-.5795 1.4486-1.1593.452-.6603.6371-1.2979.6487-1.3329-.0116-.0116-1.2513-.487-1.2628-1.9126-.0117-1.1937.9733-1.7615 1.0196-1.7967-.5562-.8224-1.4253-.9152-1.7266-.9385z"/><path d="m26.6163 15.3316c1.6876 0 2.8628 1.1629 2.8628 2.8561 0 1.6992-1.1994 2.8682-2.9051 2.8682h-1.8685v2.9706h-1.35v-8.6949zm-1.9108 4.5915h1.549c1.1754 0 1.8443-.6327 1.8443-1.7293s-.6689-1.7233-1.8382-1.7233h-1.5551z"/><path d="m29.8318 22.2255c0-1.1088.8498-1.7896 2.3568-1.874l1.7357-.1024v-.488c0-.705-.4762-1.1268-1.2716-1.1268-.7536 0-1.2237.3615-1.3381.9279h-1.2296c.0723-1.1449 1.0487-1.9884 2.6158-1.9884 1.537 0 2.5194.8134 2.5194 2.0848v4.3685h-1.2477v-1.0424h-.03c-.3676.705-1.1694 1.1509-2.0011 1.1509-1.2416 0-2.1096-.7713-2.1096-1.9101zm4.0925-.5724v-.5001l-1.5611.0964c-.7775.0542-1.2175.3977-1.2175.94 0 .5543.4581.9158 1.1573.9158.9101 0 1.6213-.6267 1.6213-1.4521z"/><path d="m36.3981 26.3591v-1.0545c.0963.024.3132.024.4218.024.6027 0 .9282-.253 1.127-.9037 0-.0121.1146-.3857.1146-.3917l-2.2903-6.3449h1.4103l1.6034 5.1579h.024l1.6034-5.1579h1.3742l-2.375 6.6702c-.5422 1.5366-1.1691 2.0307-2.483 2.0307-.1086 0-.4341-.0121-.5304-.0301z"/></g></svg>

<svg width="56" height="40" viewBox="0 0 56 40" fill="none" xmlns="http://www.w3.org/2000/svg">
<path d="M43.597 8H12.4031C12.2732 8 12.143 8 12.0133 8.00076C11.9037 8.00154 11.7943 8.00275 11.685 8.00574C11.4464 8.01218 11.2058 8.02625 10.9703 8.06856C10.731 8.1116 10.5083 8.18181 10.291 8.29235C10.0775 8.4009 9.88194 8.54288 9.71249 8.7123C9.54297 8.88172 9.40091 9.07681 9.29232 9.29049C9.18168 9.50761 9.11139 9.73024 9.06862 9.96959C9.02605 10.2051 9.01189 10.4455 9.00546 10.6836C9.00252 10.7929 9.00126 10.9022 9.00055 11.0115C8.99979 11.1414 9.00004 11.2712 9.00004 11.4013V28.9117C9.00004 29.0418 8.99979 29.1714 9.00055 29.3015C9.00126 29.4108 9.00252 29.5201 9.00546 29.6294C9.01189 29.8674 9.02605 30.1077 9.06862 30.3431C9.11139 30.5826 9.18168 30.8051 9.29232 31.0223C9.40091 31.2359 9.54297 31.4313 9.71249 31.6005C9.88194 31.7702 10.0775 31.9121 10.291 32.0204C10.5083 32.1312 10.731 32.2015 10.9703 32.2445C11.2058 32.2865 11.4464 32.3008 11.685 32.3073C11.7943 32.3098 11.9037 32.3112 12.0133 32.3117C12.143 32.3127 12.2732 32.3127 12.4031 32.3127H43.597C43.7267 32.3127 43.8568 32.3127 43.9865 32.3117C44.0958 32.3112 44.2052 32.3098 44.3151 32.3073C44.5531 32.3008 44.7936 32.2865 45.0298 32.2445C45.2688 32.2015 45.4915 32.1312 45.7088 32.0204C45.9226 31.9121 46.1175 31.7702 46.2873 31.6005C46.4566 31.4313 46.5986 31.2359 46.7075 31.0223C46.8184 30.8051 46.8886 30.5826 46.9312 30.3431C46.9738 30.1077 46.9876 29.8674 46.994 29.6294C46.997 29.5201 46.9985 29.4108 46.999 29.3015C47 29.1714 47 29.0418 47 28.9117V11.4013C47 11.2712 47 11.1414 46.999 11.0115C46.9985 10.9022 46.997 10.7929 46.994 10.6836C46.9876 10.4455 46.9738 10.2051 46.9312 9.96959C46.8886 9.73024 46.8184 9.50761 46.7075 9.29049C46.5986 9.07681 46.4566 8.88172 46.2873 8.7123C46.1175 8.54288 45.9226 8.4009 45.7088 8.29235C45.4915 8.18181 45.2688 8.1116 45.0298 8.06856C44.7936 8.02625 44.5531 8.01218 44.3151 8.00574C44.2052 8.00275 44.0958 8.00154 43.9865 8.00076C43.8568 8 43.7267 8 43.597 8Z" fill="black"/>
<path d="M43.597 8.81087L43.9807 8.8116C44.0847 8.81234 44.1886 8.81346 44.2932 8.81631C44.475 8.82122 44.6877 8.83106 44.886 8.86659C45.0583 8.89762 45.2028 8.94481 45.3416 9.01541C45.4785 9.08497 45.604 9.17613 45.7135 9.28549C45.8235 9.39559 45.9148 9.52122 45.9853 9.65964C46.0555 9.79723 46.1024 9.94104 46.1333 10.1146C46.1687 10.3106 46.1785 10.5239 46.1835 10.7068C46.1863 10.81 46.1877 10.9132 46.1882 11.0189C46.1892 11.1467 46.1892 11.2745 46.1892 11.4025V28.9182C46.1892 29.0463 46.1892 29.1738 46.1882 29.3043C46.1877 29.4075 46.1863 29.5108 46.1835 29.6142C46.1785 29.7968 46.1687 30.0099 46.1328 30.2083C46.1024 30.3794 46.0555 30.5233 45.9849 30.6616C45.9146 30.7996 45.8235 30.9251 45.714 31.0345C45.6038 31.1447 45.4787 31.2356 45.3402 31.3058C45.2025 31.376 45.0582 31.4232 44.8876 31.4539C44.6853 31.4899 44.4637 31.4998 44.2968 31.5044C44.1918 31.5067 44.0873 31.5081 43.9802 31.5086C43.8526 31.5096 43.7246 31.5096 43.597 31.5096H12.4031C12.4014 31.5096 12.3997 31.5096 12.398 31.5096C12.2719 31.5096 12.1455 31.5096 12.0171 31.5086C11.9124 31.5081 11.8079 31.5067 11.7069 31.5044C11.5362 31.4998 11.3144 31.4899 11.1138 31.4541C10.9417 31.4232 10.7974 31.376 10.6579 31.3049C10.5206 31.2353 10.3957 31.1445 10.2855 31.0341C10.1761 30.925 10.0852 30.7999 10.0149 30.6616C9.94457 30.5234 9.89751 30.3792 9.86657 30.206C9.83079 30.008 9.82097 29.7957 9.81606 29.6143C9.81325 29.5105 9.81208 29.4067 9.81142 29.3034L9.81091 28.9987L9.81094 28.9182V11.4025L9.81091 11.3221L9.8114 11.0179C9.81208 10.9141 9.81325 10.8103 9.81606 10.7065C9.82097 10.5249 9.83079 10.3126 9.86686 10.113C9.89753 9.94132 9.94457 9.79705 10.0153 9.65822C10.085 9.52099 10.1761 9.39573 10.286 9.28584C10.3955 9.17632 10.5209 9.08527 10.659 9.01504C10.797 8.94479 10.9416 8.89762 11.1137 8.86666C11.312 8.83104 11.5249 8.82122 11.7071 8.81628C11.811 8.81346 11.9149 8.81234 12.0181 8.81162L12.4031 8.81087H43.597" fill="white"/>
<path d="M19.3738 16.1803C19.6991 15.7733 19.9199 15.2269 19.8617 14.6685C19.3854 14.6922 18.8042 14.9827 18.4677 15.39C18.1655 15.7388 17.8981 16.3081 17.9678 16.8431C18.5025 16.8895 19.0367 16.5758 19.3738 16.1803Z" fill="black"/>
<path d="M19.8556 16.9475C19.0791 16.9013 18.4189 17.3881 18.0481 17.3881C17.6771 17.3881 17.1093 16.9708 16.4952 16.9821C15.6958 16.9938 14.9541 17.4456 14.5485 18.1642C13.7142 19.6018 14.3283 21.7342 15.1397 22.905C15.5337 23.4842 16.0085 24.122 16.6342 24.0991C17.2253 24.0759 17.457 23.7164 18.1756 23.7164C18.8936 23.7164 19.1023 24.0991 19.7281 24.0875C20.377 24.0759 20.7828 23.508 21.1767 22.9282C21.6287 22.2679 21.8138 21.6303 21.8254 21.5953C21.8138 21.5837 20.5741 21.1083 20.5626 19.6827C20.5509 18.489 21.5359 17.9212 21.5822 17.886C21.026 17.0636 20.1569 16.9708 19.8556 16.9475Z" fill="black"/>
<path d="M26.6163 15.3316C28.3039 15.3316 29.4791 16.4945 29.4791 18.1877C29.4791 19.8869 28.2797 21.0559 26.574 21.0559H24.7055V24.0265H23.3555V15.3316H26.6163V15.3316ZM24.7055 19.9231H26.2545C27.4299 19.9231 28.0988 19.2904 28.0988 18.1938C28.0988 17.0972 27.4299 16.4705 26.2606 16.4705H24.7055V19.9231V19.9231Z" fill="black"/>
<path d="M29.8318 22.2255C29.8318 21.1167 30.6816 20.4359 32.1886 20.3515L33.9243 20.2491V19.7611C33.9243 19.0561 33.4481 18.6343 32.6527 18.6343C31.8991 18.6343 31.429 18.9958 31.3146 19.5622H30.085C30.1573 18.4173 31.1337 17.5738 32.7008 17.5738C34.2378 17.5738 35.2202 18.3872 35.2202 19.6586V24.0271H33.9725V22.9847H33.9425C33.5749 23.6897 32.7731 24.1356 31.9414 24.1356C30.6998 24.1356 29.8318 23.3643 29.8318 22.2255ZM33.9243 21.6531V21.153L32.3632 21.2494C31.5857 21.3036 31.1457 21.6471 31.1457 22.1894C31.1457 22.7437 31.6038 23.1052 32.303 23.1052C33.2131 23.1052 33.9243 22.4785 33.9243 21.6531Z" fill="black"/>
<path d="M36.3981 26.3591V25.3046C36.4944 25.3286 36.7113 25.3286 36.8199 25.3286C37.4226 25.3286 37.7481 25.0756 37.9469 24.4249C37.9469 24.4128 38.0615 24.0392 38.0615 24.0332L35.7712 17.6883H37.1815L38.7849 22.8462H38.8089L40.4123 17.6883H41.7865L39.4115 24.3585C38.8693 25.8951 38.2424 26.3892 36.9285 26.3892C36.8199 26.3892 36.4944 26.3771 36.3981 26.3591Z" fill="black"/>
</svg>
